64x64/apps/wootility.svg

<svg height="64" width="64" xmlns="http://www.w3.org/2000/svg"><rect height="40" opacity=".2" rx="2.636" ry="2.857" width="58" x="3" y="13"/><rect fill="#f4f4f7" height="40" rx="2.636" ry="2.857" width="58" x="3" y="12"/><path d="m8 17h48v30h-48z" fill="#4f4f4f"/><path d="m13.057 23 3.352 19h31.182l3.352-19h-8.046l-1.914 11h-4.983v-11h-8v11h-4.983l-1.915-11z" opacity=".2"/><g fill="#f4f4f7"><path d="m13.057 22 3.352 19h31.182l3.352-19h-8.046l-1.914 11h-4.983v-11h-8v11h-4.983l-1.915-11z"/><path d="m5.637 12c-1.46 0-2.637 1.275-2.637 2.857v1c0-1.582 1.176-2.857 2.637-2.857h52.726c1.46 0 2.637 1.275 2.637 2.857v-1c0-1.582-1.176-2.857-2.637-2.857z" opacity=".2"/><path d="m13.057 22 .175 1h7.87l1.916 11h4.982v-1h-4.982l-1.916-11zm14.943 0v1h8v-1zm14.896 0-1.914 11h-4.982v1h4.982l1.914-11h7.872l.175-1z" opacity=".2"/></g><path d="m8 17h48v1h-48z" opacity=".2"/><path d="m8 47h48v1h-48z" fill="#f4f4f7" opacity=".2"/></svg>

<svg xmlns="http://www.w3.org/2000/svg" width="64" height="64" version="1"><rect style="opacity:.2" width="58" height="40" x="3" y="13" rx="2.636" ry="2.857"/><rect style="fill:#f4f4f7" width="58" height="40" x="3" y="12" rx="2.636" ry="2.857"/><path style="fill:#4f4f4f" d="M8 17h48v30H8z"/><path style="opacity:.2" d="m13.057 23 3.352 19H47.591l3.352-19h-8.046l-1.914 11H36V23h-8v11h-4.983l-1.915-11z"/><path style="fill:#f4f4f7" d="m13.057 22 3.352 19H47.591l3.352-19h-8.046l-1.914 11H36V22h-8v11h-4.983l-1.915-11z"/><path style="fill:#f4f4f7;opacity:.2" d="M5.637 12C4.177 12 3 13.275 3 14.857v1C3 14.275 4.176 13 5.637 13h52.726C59.823 13 61 14.275 61 15.857v-1C61 13.275 59.824 12 58.363 12H5.637z"/><path style="opacity:.2;fill:#f4f4f7" d="m13.057 22 .175 1h7.87l1.916 11H28v-1h-4.982l-1.916-11h-8.045zM28 22v1h8v-1h-8zm14.896 0-1.914 11H36v1h4.982l1.914-11h7.872l.175-1h-8.047z"/><path style="opacity:.2" d="M8 17h48v1H8z"/><path style="opacity:.2;fill:#f4f4f7" d="M8 47h48v1H8z"/></svg>
